third_party/noto/noto_2/emoji_u1f4ec.svg

<svg enable-background="new 0 0 128 128" version="1.1" viewBox="0 0 128 128" xmlns="http://www.w3.org/2000/svg"><rect x="63.14" y="84.17" width="18.31" height="39.83" fill="#C87D5E"/><path d="m81.45 94.23c-1.64-2.66-3.81-4.93-6.55-6.41-1.7-0.92-3.58-1.45-5.49-1.64h-3.19c-1.04 0.1-2.08 0.3-3.08 0.6v20.13c0.89-1.36 2.37-2.34 3.97-2.72 2.79-0.65 5.75 0.42 8.01 2.17s3.95 4.13 5.6 6.46c0.25 0.35 0.49 0.69 0.74 1.04v-19.63z" fill="#874D36"/><path d="m28.94 28.97c11.86 0 21.51 8.02 21.51 17.89v47.6h-43.03v-47.6c0-9.87 9.65-17.89 21.52-17.89" fill="#4E342E"/><path d="m54.97 94.19h-35.84c-2.13 0-3.93-1.57-4.22-3.68l-5.04-36.63c-0.24-1.75 1.12-3.31 2.89-3.31h42.21v43.62z" fill="#fff"/><path d="m97.55 25.09h-68.61s23.58 2.89 23.58 22.78l0.12 50.48h66.52c2.67 0 4.83-2.16 4.83-4.83v-41.98c0.01-14.61-11.83-26.45-26.44-26.45z" fill="#1976D2"/><path d="m83.47 34.01-8.14 0.28-11.85 18.18v-14.75c0-7.88-8-12.64-8-12.64h31.16l0.16 0.16c3.27 3.11 1.18 8.61-3.33 8.77z" fill="#0D47A1"/><ellipse cx="74.21" cy="54.06" rx="8.14" ry="9.16" fill="#0D47A1"/><path d="m66.89 10.11 0.03 41.56c0 1.4 1.13 2.53 2.53 2.53h5.11c1.4 0 2.53-1.13 2.53-2.53v-47.67h-4.1c-3.37 0-6.1 2.73-6.1 6.11z" fill="#C62828"/><path d="m69.12 10.11 0.03 41.56h8.17v-32.18h14.08c3.25 0 3.63-1.41 3.63-7.55s-0.37-7.94-3.62-7.94h-16.19c-3.37 0-6.1 2.73-6.1 6.11z" fill="#F44336"/><path d="m74.39 10.88c-0.07 1.99-1.37 20.01-1.6 23.39-0.28 4.09-2.64 4.51-2.64 0.79v-24.36c0.01-3.94 4.39-4.15 4.24 0.18z" fill="#FF7555"/><path d="m73.4 42.44 0.07 18.31h-4.14c-4.05 0-7.33-4.1-7.33-9.16s3.28-9.16 7.33-9.16 4.07 0.01 4.07 0.01z" fill="#82AEC0"/><ellipse cx="73.4" cy="51.59" rx="7.33" ry="9.16" fill="#E0E0E0"/><path d="m69.02 51.86c0.44 0.22 0.97-0.02 1.35-0.34 1.16-0.97 1.6-2.57 2.67-3.63 0.94-0.94 2.37-1.86 1.25-3.25-0.81-1-2.18-0.83-3.25-0.37-2.37 0.99-4.25 6.47-2.02 7.59z" fill="#fff"/><path d="m28.94 29.23c11.77 0 21.35 7.96 21.35 17.75v47.22h-42.7v-47.23c0-9.78 9.58-17.74 21.35-17.74m0-4.14c-15.13 0-24.94 10.19-24.94 22.77v48.35c0 1.17 0.95 2.13 2.13 2.13h48.09c1.17 0 2.13-0.95 2.13-2.13v-48.35c-0.02-12.58-12.28-22.77-27.41-22.77z" fill="#4FC3F7"/><path d="m17.68 91.5c-0.59-0.31-0.1-0.9 0.23-1.44l13.37-23.29 2.63 1.6-14.88 22.38c-0.38 0.58-0.76 1.06-1.35 0.75z" fill="#6FBFF0" stroke="#6FBFF0" stroke-miterlimit="10"/><path d="m39.89 74.93-27.74-21.3c-0.34-0.23-0.63-0.65-0.28-1.07 0.28-0.34 0.54-0.16 1.03 0.13l26.88 18.52c0.68 0.42 1.56 0.24 2.03-0.4l8.02-10.86-0.02 4.87-6.76 9.54c-0.74 1.01-2.13 1.26-3.16 0.57z" fill="#6FBFF0" stroke="#6FBFF0" stroke-miterlimit="10"/></svg>

<?xml version="1.0" encoding="utf-8"?>
<!-- Generator: Adobe Illustrator 25.2.3, SVG Export Plug-In . SVG Version: 6.00 Build 0)  -->
<svg version="1.1" id="Layer_4_copy" xmlns="http://www.w3.org/2000/svg" xmlns:xlink="http://www.w3.org/1999/xlink" x="0px"
	 y="0px" viewBox="0 0 128 128" style="enable-background:new 0 0 128 128;" xml:space="preserve">
<rect x="63.14" y="84.17" style="fill:#C87D5E;" width="18.31" height="39.83"/>
<path style="fill:#874D36;" d="M81.45,94.23c-1.64-2.66-3.81-4.93-6.55-6.41c-1.7-0.92-3.58-1.45-5.49-1.64h-3.19
	c-1.04,0.1-2.08,0.3-3.08,0.6v20.13c0.89-1.36,2.37-2.34,3.97-2.72c2.79-0.65,5.75,0.42,8.01,2.17c2.26,1.75,3.95,4.13,5.6,6.46
	c0.25,0.35,0.49,0.69,0.74,1.04V94.23z"/>
<path style="fill:#4E342E;" d="M28.94,28.97c11.86,0,21.51,8.02,21.51,17.89v47.6H7.42v-47.6C7.42,36.99,17.07,28.97,28.94,28.97"/>
<path style="fill:#FFFFFF;" d="M54.97,94.19H19.13c-2.13,0-3.93-1.57-4.22-3.68L9.87,53.88c-0.24-1.75,1.12-3.31,2.89-3.31h42.21
	V94.19z"/>
<g>
	<path style="fill:#1976D2;" d="M97.55,25.09H28.94c0,0,23.58,2.89,23.58,22.78l0.12,50.48h66.52c2.67,0,4.83-2.16,4.83-4.83V51.54
		C124,36.93,112.16,25.09,97.55,25.09z"/>
</g>
<path style="fill:#0D47A1;" d="M83.47,34.01l-8.14,0.28L63.48,52.47c0,0,0-9.63,0-14.75c0-7.88-8-12.64-8-12.64h31.16l0.16,0.16
	C90.07,28.35,87.98,33.85,83.47,34.01z"/>
<ellipse style="fill:#0D47A1;" cx="74.21" cy="54.06" rx="8.14" ry="9.16"/>
<path style="fill:#C62828;" d="M66.89,10.11l0.03,41.56c0,1.4,1.13,2.53,2.53,2.53h5.11c1.4,0,2.53-1.13,2.53-2.53V4l-4.1,0
	C69.62,4,66.89,6.73,66.89,10.11z"/>
<path style="fill:#F44336;" d="M69.12,10.11l0.03,41.56h8.17V19.49h14.08c3.25,0,3.63-1.41,3.63-7.55S94.66,4,91.41,4H75.22
	C71.85,4,69.12,6.73,69.12,10.11z"/>
<path style="fill:#FF7555;" d="M74.39,10.88c-0.07,1.99-1.37,20.01-1.6,23.39c-0.28,4.09-2.64,4.51-2.64,0.79V10.7
	C70.16,6.76,74.54,6.55,74.39,10.88z"/>
<path style="fill:#82AEC0;" d="M73.4,42.44l0.07,18.31c0,0-1.95,0-4.14,0c-4.05,0-7.33-4.1-7.33-9.16s3.28-9.16,7.33-9.16
	S73.4,42.44,73.4,42.44z"/>
<ellipse style="fill:#E0E0E0;" cx="73.4" cy="51.59" rx="7.33" ry="9.16"/>
<path style="fill:#FFFFFF;" d="M69.02,51.86c0.44,0.22,0.97-0.02,1.35-0.34c1.16-0.97,1.6-2.57,2.67-3.63
	c0.94-0.94,2.37-1.86,1.25-3.25c-0.81-1-2.18-0.83-3.25-0.37C68.67,45.26,66.79,50.74,69.02,51.86z"/>
<path style="fill:#4FC3F7;" d="M28.94,29.23c11.77,0,21.35,7.96,21.35,17.75V94.2H7.59V46.97C7.59,37.19,17.17,29.23,28.94,29.23
	 M28.94,25.09L28.94,25.09C13.81,25.09,4,35.28,4,47.86v48.35c0,1.17,0.95,2.13,2.13,2.13h48.09c1.17,0,2.13-0.95,2.13-2.13V47.86
	C56.33,35.28,44.07,25.09,28.94,25.09L28.94,25.09z"/>
<g>
	<path style="fill:#6FBFF0;stroke:#6FBFF0;stroke-miterlimit:10;" d="M17.68,91.5c-0.59-0.31-0.1-0.9,0.23-1.44l13.37-23.29
		l2.63,1.6L19.03,90.75C18.65,91.33,18.27,91.81,17.68,91.5z"/>
</g>
<g>
	<path style="fill:#6FBFF0;stroke:#6FBFF0;stroke-miterlimit:10;" d="M39.89,74.93l-27.74-21.3c-0.34-0.23-0.63-0.65-0.28-1.07
		c0.28-0.34,0.54-0.16,1.03,0.13l26.88,18.52c0.68,0.42,1.56,0.24,2.03-0.4l8.02-10.86l-0.02,4.87l-6.76,9.54
		C42.31,75.37,40.92,75.62,39.89,74.93z"/>
</g>
</svg>
